X:1
T:Title
%%score { ( 1 3 ) | ( 2 4 ) }
L:1/8
M:6/4
K:Ab
V:1 treble nm="Grand Piano"
V:3 treble 
V:2 bass 
V:4 bass 
V:1
 z6 z4[Q:1/4=180] [CE]2 | [Ec]2 [=D_c]2 [E=c]2 [_DB]2 [CA]2 [DF]2 | [CE]2 [A,C]2 [DF]2 [CE]6 | %3
 A3 A A2 [=Dc]4 [DB]2 |[M:5/4] B2- B2- B6 |[M:1/4] E2 | %6
[M:6/4] [Ec]2 [=D_c]2 [E=c]2 [_DB]2 [CA]2 [DF]2 | [CE]2 [A,C]2 [DF]2 [CE]6 | B3 B B2 [=Dc]4 [DB]2 | %9
 E12 | [Ec]3 [DB] [CA]2 [Ec]4 [CE]2 | [B,=D]12 | B3 =A B2 [Fd]4 [DG]2 |[M:5/4] A4- [DA-]2 [CA]4 | %14
[M:1/4] AA |[M:6/4] [FA]4 [DF]2 [Fd]4 [=Ed]2 | [Ec]4 [CA]2 c6 | [Ee]3 [EA] [Fd]2 [Ec]4 [DB]2 | %18
[M:5/4] [CA]2- [CA]2- [CA]6 |] %19
V:2
 z6 z4 [A,,A,]2 | [A,,A,]2 [A,,A,]2 [A,,A,]2 [A,,A,]2 [A,,A,]2 [A,,A,]2 | %2
 [A,,A,]2 [A,,E,]2 [A,,A,]2 [A,,A,]6 | [F,A,C]3 [F,A,C] [F,A,C]2 [B,,A,]4 [B,,A,]2 | %4
[M:5/4] [E,G,E]2- [E,G,E]2- [E,G,E]6 |[M:1/4] [E,G,]2 | %6
[M:6/4] [A,,A,]2 [A,,A,]2 [A,,A,]2 [A,,A,]2 [A,,A,]2 [A,,A,]2 | %7
 [A,,A,]2 [A,,E,]2 [A,,A,]2 [A,,A,]6 | [G,B,E]3 [G,B,E] [G,B,E]2 [B,,A,]4 [B,,A,]2 | %9
 E,4- [E,-A,]2 [E,B,]6 | [A,,A,]3 [A,,A,] [A,,E,]2 [A,,A,]4 [A,,A,]2 | [B,,A,]4 B,,2 .F,6 | %12
 D3 C D2 [E,G,]4 [E,B,]2 |[M:5/4] [A,,A,]4 [A,,F,]2 [A,,E,]4 |[M:1/4][K:treble] [A,C_G][A,CG] | %15
[M:6/4][K:bass] [D,D]4 [D,A,]2 [D,A,]4 [D,A,]2 | [A,,A,]4 [A,,A,]2 [A,E]6 | %17
 [C,A,]3 [C,A,] [D,A,]2 [E,A,]4 [E,G,]2 |[M:5/4] [A,,A,]2- [A,,A,]2- [A,,A,]6 |] %19
V:3
 x12 | x12 | x12 | x12 |[M:5/4] x10 |[M:1/4] x2 |[M:6/4] x12 | x12 | x12 | z4 C2 D4 E2 | x12 | %11
 z4 A,2 .A,6 | x12 |[M:5/4] C4 z2 z4 |[M:1/4] x2 |[M:6/4] x12 | x12 | x12 |[M:5/4] x10 |] %19
V:4
 x12 | x12 | x12 | x12 |[M:5/4] x10 |[M:1/4] x2 |[M:6/4] x12 | x12 | x12 | .G,6 z6 | x12 | x12 | %12
 [E,G,]6 z6 |[M:5/4] x10 |[M:1/4][K:treble] x2 |[M:6/4][K:bass] x12 | x12 | x12 |[M:5/4] x10 |] %19

